app/dist/common/images/revance-therapeutics.svg

<svg height="18" width="18" xmlns="http://www.w3.org/2000/svg"><path d="m0 0h18v18h-18z" fill="#f0f3fa"/><path d="m10.5 7h-3v-1.67c0-.74.6-1.33 1.33-1.33h.34c.74 0 1.33.6 1.33 1.33zm-6.5 1.37v3.31c0 .72.6 1.32 1.33 1.32h.34c.74 0 1.33-.6 1.33-1.32v-4.68h-1.67c-.74 0-1.33.6-1.33 1.32z" fill="#071f33"/><path d="m14 8.33c0-.74-.6-1.33-1.33-1.33h-1.67v1.67c0 .74.6 1.33 1.33 1.33h.34c.74 0 1.33-.6 1.33-1.33z" fill="#625d9c"/></svg>

<!-- by TradingView --><svg xmlns="http://www.w3.org/2000/svg" width="18" height="18"><path fill="#F0F3FA" d="M0 0h18v18H0z"/><path d="M10.5 7h-3V5.33C7.5 4.59 8.1 4 8.83 4h.34c.74 0 1.33.6 1.33 1.33V7zM4 8.37v3.31C4 12.4 4.6 13 5.33 13h.34C6.41 13 7 12.4 7 11.68V7H5.33C4.59 7 4 7.6 4 8.32v.05z" fill="#071F33"/><path d="M14 8.33C14 7.59 13.4 7 12.67 7H11v1.67c0 .74.6 1.33 1.33 1.33h.34c.74 0 1.33-.6 1.33-1.33v-.34z" fill="#625D9C"/></svg>
